X: 28273
T: Mrs. MacDougall
R: jig
M: 6/8
K: Amixolydian
|:e|~A3 ABc|ece a2f|ecA ABc|ecA G2B|
~A3 ABc|ece a2A|c2e fdB|A3 [1 A2:|2 Ae||
|:f|g3 fed|efg a2f|ecA ABc|ecA G2
[1f|g3 fed|efg a2A|c2e fdB|A3 Ae:|
[2 B|~A3 ABc|ece a2A|c2e fdB|A3 A2||

